X:1
T:10. Recitative
T:If not for mine, for empire's sake
%%score 1 2 { ( 3 4 ) 5 }
L:1/8
Q:1/4=80
M:4/4
K:G
V:1 treble-8 nm="Aeneas"
V:2 bass nm="Vcl"
V:3 treble nm="Cembalo, Harpsichord"
V:4 treble 
V:5 bass nm="Cembalo,  "
V:1
 z E E F G3/2 G/ c E | G2 z G ^G G G A | TA3 ^G A2 c2 | z2 ^c2 d A B G | %4
w: If not for mine, for em- pire's|sake Some pi- ty on your|lov- er take; Ah!|Ah! Make not in a|
 c<B A/G/F/ G/ F3/2 A/ d c/B/ | e/d/c/B/ A/G/ F/E/ E B PG3/2 F/ | G4 |] %7
w: hope- * * * * less fire A he- ro _|fall _ _ _ _ _ and _ Troy once more ex-|pire.|
V:2
 E,4 C,4- | C,4 B,,4- | B,,4 A,,4 | A,3 G, =F,2 G,2 | E,2 C,2 D,2 B,,G,, | C,4 D,2 D,,2 | G,,4 |] %7
V:3
 [G,B,E]4 [G,CE]4- | [G,CE]C/-E/- [CEG]2 [D^G]4- | [DG]4 [CA]4 | !arpeggio![^CE]4 A2 B2 | %4
 c4 A2 dc/B/ | [Ee]e/d/ c/B/A/G/ =F/E/D/C/ B,/C/A, | G,,2 G,A, |] %7
V:4
 x8 | x8 | x8 | x4 D4 | G2 E2 =F2 G2 | x8 | x4 |] %7
V:5
 E,4 C,4- | C,4 B,,4- | B,,4 A,,4 | A,3 G, =F,2 G,2 | E,2 C,2 D,2 B,,G,, | C,4 D,2 D,,2 | %6
 G,,2 G,A, |] %7

